img/icon/letter -C.svg

<svg width="40" height="40" viewBox="0 0 40 40" fill="none" xmlns="http://www.w3.org/2000/svg">
<rect opacity="0.1" width="40" height="40" rx="6" fill="url(#paint0_linear)"/>
<path d="M20.2598 27.2227C23.5439 27.2227 25.8354 25.3394 26.1509 22.3521H23.4233C23.1265 23.9385 21.9297 24.9126 20.269 24.9126C18.126 24.9126 16.7808 23.1499 16.7808 20.2925C16.7808 17.4722 18.1445 15.7002 20.2598 15.7002C21.8926 15.7002 23.1543 16.7764 23.4141 18.4185H26.1416C25.9282 15.4219 23.479 13.3809 20.2598 13.3809C16.3818 13.3809 13.9233 15.9878 13.9233 20.3018C13.9233 24.625 16.3633 27.2227 20.2598 27.2227Z" fill="url(#paint1_linear)"/>
<defs>
<linearGradient id="paint0_linear" x1="0" y1="0" x2="0" y2="40" gradientUnits="userSpaceOnUse">
<stop stop-color="#5986FB"/>
<stop offset="1" stop-color="#2D4EF5"/>
</linearGradient>
<linearGradient id="paint1_linear" x1="0" y1="0" x2="0" y2="40" gradientUnits="userSpaceOnUse">
<stop stop-color="#5986FB"/>
<stop offset="1" stop-color="#2D4EF5"/>
</linearGradient>
</defs>
</svg>

<svg width="40" height="40" fill="none" xmlns="http://www.w3.org/2000/svg"><rect opacity=".1" width="40" height="40" rx="6" fill="url(#paint0_linear)"/><path d="M20.26 27.223c3.284 0 5.575-1.884 5.89-4.87h-2.727c-.296 1.585-1.493 2.56-3.154 2.56-2.143 0-3.488-1.763-3.488-4.62 0-2.82 1.364-4.593 3.479-4.593 1.633 0 2.894 1.076 3.154 2.719h2.728c-.214-2.997-2.663-5.038-5.882-5.038-3.878 0-6.337 2.607-6.337 6.92 0 4.324 2.44 6.922 6.337 6.922z" fill="url(#paint1_linear)"/><defs><linearGradient id="paint0_linear" x2="0" y2="40" gradientUnits="userSpaceOnUse"><stop stop-color="#5986FB"/><stop offset="1" stop-color="#2D4EF5"/></linearGradient><linearGradient id="paint1_linear" x2="0" y2="40" gradientUnits="userSpaceOnUse"><stop stop-color="#5986FB"/><stop offset="1" stop-color="#2D4EF5"/></linearGradient></defs></svg>
